X: 112
M: 2/4
L: 1/8
K: D
!segno!|:\
(d2 f2) | aa af/a/ | gg ge/g/ | fd' af |\
d2 f2 | aa af/a/ | gb/g/ ec | d2 d2 ::\
ceec |\
!p!(AG)(FA) | G2 G2 |\
(GF)(EG) | F2 F2 |\
d'agf | edcB |\
!p!(AG)(FA) | G2 G2 | (GF)(EG) | F2 F2 |\


